img/svg-fighting.svg

<svg width="16" height="16" viewBox="0 0 16 16" fill="none" xmlns="http://www.w3.org/2000/svg">
<path fill-rule="evenodd" clip-rule="evenodd" d="M2.62595 1.33018C2.81959 0.565669 3.51218 0 4.33687 0C4.95547 0 5.49975 0.318272 5.81487 0.8H6.3309C6.6515 0.470987 7.0994 0.266667 7.59506 0.266667C8.32175 0.266667 8.94587 0.705881 9.21644 1.33333H9.64847C9.91919 1.16433 10.2391 1.06667 10.5817 1.06667C11.3084 1.06667 11.9325 1.50588 12.2031 2.13333H13.3779C13.388 2.13333 13.3974 2.13604 13.4055 2.14075C13.4591 2.13584 13.5135 2.13333 13.5684 2.13333C14.5431 2.13333 15.3332 2.92348 15.3332 3.89819V9.19019L15.3333 9.2L15.3332 9.20981V9.28603C15.3332 9.31831 15.3323 9.35047 15.3306 9.38247C15.2244 13.0537 11.9233 16 7.86656 16C3.74284 16 0.399902 12.9555 0.399902 9.2C0.399902 7.38722 1.17881 5.74009 2.44845 4.52109C2.44528 6.28838 2.47513 8.11544 2.61274 8.08409C2.98119 8.00009 2.69331 2.52623 2.62595 1.33018Z" fill="#C44D61"/>
</svg>

<svg width="16" height="16" fill="none" xmlns="http://www.w3.org/2000/svg"><path fill-rule="evenodd" clip-rule="evenodd" d="M2.626 1.33A1.766 1.766 0 0 1 5.815.8h.516a1.765 1.765 0 0 1 2.886.533h.431a1.765 1.765 0 0 1 2.555.8h1.175c.01 0 .02.003.027.008a1.765 1.765 0 0 1 1.928 1.757V9.286c0 .032 0 .064-.002.096C15.224 13.054 11.923 16 7.867 16 3.743 16 .4 12.956.4 9.2c0-1.813.779-3.46 2.048-4.679-.003 1.767.027 3.594.165 3.563.368-.084.08-5.558.013-6.754Z" fill="#C44D61"/></svg>
